assets/images/icons/src/television.svg

<?xml version="1.0" encoding="utf-8"?>
<!-- Generated by IcoMoon.io -->
<!DOCTYPE svg PUBLIC "-//W3C//DTD SVG 1.1//EN" "http://www.w3.org/Graphics/SVG/1.1/DTD/svg11.dtd">
<svg version="1.1" xmlns="http://www.w3.org/2000/svg" xmlns:xlink="http://www.w3.org/1999/xlink" width="15" height="14" viewBox="0 0 15 14">
<path fill="#444444" d="M14 9.75v-7.5q0-0.102-0.074-0.176t-0.176-0.074h-12.5q-0.102 0-0.176 0.074t-0.074 0.176v7.5q0 0.102 0.074 0.176t0.176 0.074h12.5q0.102 0 0.176-0.074t0.074-0.176zM15 2.25v7.5q0 0.516-0.367 0.883t-0.883 0.367h-5.75v1h2.75q0.109 0 0.18 0.070t0.070 0.18v0.5q0 0.109-0.070 0.18t-0.18 0.070h-6.5q-0.109 0-0.18-0.070t-0.070-0.18v-0.5q0-0.109 0.070-0.18t0.18-0.070h2.75v-1h-5.75q-0.516 0-0.883-0.367t-0.367-0.883v-7.5q0-0.516 0.367-0.883t0.883-0.367h12.5q0.516 0 0.883 0.367t0.367 0.883z"></path>
</svg>

<svg xmlns="http://www.w3.org/2000/svg" width="15" height="14" viewBox="0 0 15 14"><path fill="#444" d="M14 9.75v-7.5q0-.102-.074-.176T13.75 2H1.25q-.102 0-.176.074T1 2.25v7.5q0 .102.074.176T1.25 10h12.5q.102 0 .176-.074T14 9.75zm1-7.5v7.5q0 .516-.367.883T13.75 11H8v1h2.75q.109 0 .18.07t.07.18v.5q0 .109-.07.18t-.18.07h-6.5q-.109 0-.18-.07T4 12.75v-.5q0-.109.07-.18t.18-.07H7v-1H1.25q-.516 0-.883-.367T0 9.75v-7.5q0-.516.367-.883T1.25 1h12.5q.516 0 .883.367T15 2.25z"/></svg>
